public/img/logo.svg

<svg fill="none" height="900" viewBox="0 0 1600 900" width="1600" xmlns="http://www.w3.org/2000/svg"><path d="m0 0h1600v900h-1600z" fill="#0f172a"/><g fill="#fff"><path d="m484.26 517.54c-4.4 0-8.58-1.173-12.54-3.52-3.813-2.347-5.72-5.353-5.72-9.02 0-1.907.293-3.96.88-6.16.733-2.2 1.393-4.253 1.98-6.16 4.547-13.933 8.8-26.913 12.76-38.94 3.96-12.173 7.92-23.833 11.88-34.98 4.107-11.293 8.36-22.587 12.76-33.88 4.547-11.293 9.607-23.1 15.18-35.42-5.573 1.173-10.34 2.713-14.3 4.62-3.96 1.76-7.187 3.373-9.68 4.84-2.493 1.32-4.327 1.98-5.5 1.98-.733 0-1.833-.513-3.3-1.54-1.32-1.027-2.493-2.2-3.52-3.52s-1.54-2.493-1.54-3.52c4.107-1.76 8.873-3.593 14.3-5.5 5.573-1.907 11.587-3.52 18.04-4.84s12.907-1.98 19.36-1.98c6.893 0 13.933.953 21.12 2.86 7.187 1.76 13.787 4.473 19.8 8.14 6.16 3.52 11.073 7.993 14.74 13.42 3.813 5.28 5.72 11.513 5.72 18.7 0 7.773-1.76 14.447-5.28 20.02s-8.213 10.267-14.08 14.08c-5.72 3.813-11.953 6.893-18.7 9.24s-13.493 4.107-20.24 5.28c-6.6 1.173-12.54 1.98-17.82 2.42s-9.24.66-11.88.66h-1.32c-4.107 14.52-8.14 29.04-12.1 43.56-3.96 14.373-7.627 27.427-11 39.16zm25.08-89.54c8.213-.587 16.427-1.98 24.64-4.18s15.62-5.207 22.22-9.02c6.747-3.96 12.1-8.873 16.06-14.74 4.107-5.867 6.16-12.687 6.16-20.46 0-7.333-1.98-13.273-5.94-17.82-3.813-4.547-8.8-7.993-14.96-10.34-6.013-2.347-12.393-3.593-19.14-3.74-5.28 10.267-10.34 22.44-15.18 36.52-4.84 13.933-9.46 28.527-13.86 43.78z"/><path d="m594.069 505c-6.453 0-11.293-1.907-14.52-5.72-3.226-3.813-4.84-8.433-4.84-13.86 0-3.373.587-7.627 1.76-12.76 1.174-5.133 2.787-10.487 4.84-16.06 2.2-5.72 4.694-11.073 7.48-16.06 2.787-4.987 5.794-9.02 9.02-12.1 3.227-3.227 6.454-4.84 9.68-4.84 1.76 0 3.3.587 4.62 1.76 1.32 1.027 1.98 2.567 1.98 4.62 0 1.907-1.173 4.767-3.52 8.58-2.2 3.813-4.84 8.213-7.92 13.2-2.933 4.987-5.573 10.193-7.92 15.62-2.2 5.28-3.3 10.34-3.3 15.18 0 4.693.807 7.847 2.42 9.46 1.76 1.467 4.254 2.2 7.48 2.2 4.987 0 10.414-2.493 16.28-7.48 5.867-4.987 11.954-13.713 18.26-26.18l3.3 3.52c-5.133 12.907-11.66 22.953-19.58 30.14s-16.426 10.78-25.52 10.78zm25.96-99.22c-2.786 0-5.353-.66-7.7-1.98-2.2-1.467-3.3-3.667-3.3-6.6 0-3.52 1.907-6.527 5.72-9.02 3.814-2.493 7.774-3.74 11.88-3.74 2.64 0 4.84.587 6.6 1.76 1.907 1.173 2.86 3.3 2.86 6.38s-1.686 6.087-5.06 9.02c-3.373 2.787-7.04 4.18-11 4.18z"/><path d="m704.32 502.8c-5.72 0-10.12-1.467-13.2-4.4-2.933-2.787-4.4-6.38-4.4-10.78 0-2.933.513-6.013 1.54-9.24 1.027-3.373 2.053-6.747 3.08-10.12s1.54-6.6 1.54-9.68c0-3.227-.807-5.427-2.42-6.6-1.467-1.32-3.227-1.98-5.28-1.98-4.4 0-8.947 1.833-13.64 5.5-4.547 3.52-9.02 7.993-13.42 13.42-4.253 5.427-8.287 11.073-12.1 16.94s-7.113 11.147-9.9 15.84c-2.787 0-5.427-.513-7.92-1.54-2.493-.88-4.62-2.493-6.38-4.84.147-.733 1.027-2.933 2.64-6.6 1.467-3.813 3.153-8.287 5.06-13.42 1.907-5.28 3.593-10.78 5.06-16.5s2.2-10.927 2.2-15.62c1.027-1.173 2.567-2.347 4.62-3.52 2.2-1.173 4.473-1.76 6.82-1.76 5.133 0 7.7 2.2 7.7 6.6 0 1.76-.367 4.4-1.1 7.92-.587 3.373-1.467 7.26-2.64 11.66 3.813-5.133 7.993-9.973 12.54-14.52s9.24-8.213 14.08-11c4.987-2.933 9.973-4.4 14.96-4.4 6.307 0 10.927 2.127 13.86 6.38 3.08 4.253 4.62 8.947 4.62 14.08 0 4.4-.733 8.507-2.2 12.32s-2.933 7.407-4.4 10.78c-1.32 3.373-1.98 6.673-1.98 9.9 0 2.347.513 4.033 1.54 5.06 1.173.88 2.42 1.32 3.74 1.32 3.52 0 7.187-1.687 11-5.06s7.407-7.627 10.78-12.76c3.52-5.28 6.6-10.56 9.24-15.84l3.74 3.08c-3.08 7.187-6.6 13.787-10.56 19.8-3.813 5.867-8.14 10.633-12.98 14.3-4.693 3.52-9.973 5.28-15.84 5.28z"/><path d="m803.905 506.76c-4.547 0-8.507-1.467-11.88-4.4-3.374-2.933-6.087-6.6-8.14-11-2.054-4.4-3.594-8.873-4.62-13.42-1.027-4.693-1.54-8.727-1.54-12.1 2.053-.44 4.62-1.1 7.7-1.98s6.233-2.053 9.46-3.52c3.226-1.613 5.866-3.52 7.92-5.72 2.2-2.347 3.3-5.133 3.3-8.36 0-2.64-.88-4.767-2.64-6.38-1.614-1.613-3.96-2.42-7.04-2.42-4.107 0-7.994 1.393-11.66 4.18-3.667 2.64-7.114 6.16-10.34 10.56-3.08 4.4-5.94 9.167-8.58 14.3-2.494 5.133-4.767 10.12-6.82 14.96-1.907 4.84-3.52 9.02-4.84 12.54-1.614 4.4-3.154 7.333-4.62 8.8-1.467 1.613-3.594 2.42-6.38 2.42-1.027 0-2.274-.293-3.74-.88-1.32-.587-2.494-2.053-3.52-4.4-.88-2.347-1.32-6.087-1.32-11.22 0-8.947 1.246-18.773 3.74-29.48 2.493-10.707 5.793-21.56 9.9-32.56 4.253-11.147 8.873-21.78 13.86-31.9 4.986-10.12 10.046-19.213 15.18-27.28 5.133-8.067 9.9-14.447 14.3-19.14 4.546-4.693 8.286-7.04 11.22-7.04 2.493 0 4.546 1.54 6.16 4.62 1.76 2.933 2.64 6.747 2.64 11.44 0 4.987-1.1 10.56-3.3 16.72-2.2 6.013-5.354 12.173-9.46 18.48-3.96 6.16-8.727 12.027-14.3 17.6-5.574 5.573-11.734 10.34-18.48 14.3-4.107 9.533-7.26 18.993-9.46 28.38-2.2 9.24-3.594 17.453-4.18 24.64 2.64-6.013 5.646-12.173 9.02-18.48 3.373-6.307 7.113-12.173 11.22-17.6 4.106-5.573 8.506-10.047 13.2-13.42 4.84-3.373 9.973-5.06 15.4-5.06 5.866 0 11 2.053 15.4 6.16s6.6 9.24 6.6 15.4c0 4.4-1.174 8.213-3.52 11.44-2.347 3.227-5.28 5.94-8.8 8.14-3.374 2.053-6.82 3.593-10.34 4.62s-6.527 1.613-9.02 1.76c.44 1.907 1.026 4.327 1.76 7.26.88 2.933 1.98 5.793 3.3 8.58s3.006 5.133 5.06 7.04c2.053 1.907 4.473 2.86 7.26 2.86 3.666 0 7.406-1.687 11.22-5.06 3.96-3.373 7.773-7.847 11.44-13.42 3.813-5.573 7.186-11.733 10.12-18.48l3.08 3.74c-2.494 7.333-5.94 14.373-10.34 21.12-4.254 6.747-9.02 12.173-14.3 16.28-5.28 4.253-10.707 6.38-16.28 6.38zm-31.46-97.24c3.96-3.52 8.14-7.847 12.54-12.98 4.4-5.28 8.14-10.853 11.22-16.72 3.226-6.013 4.913-11.733 5.06-17.16 0-.147 0-.22 0-.22 0-.147 0-.293 0-.44-1.467.587-3.814 3.153-7.04 7.7-3.08 4.4-6.527 10.047-10.34 16.94-3.814 6.893-7.627 14.52-11.44 22.88z"/><path d="m848.106 508.74c-4.84 0-9.02-1.613-12.54-4.84-3.667-3.227-5.5-8.067-5.5-14.52 0-5.133 1.173-10.707 3.52-16.72 2.346-6.013 5.573-11.953 9.68-17.82 4.106-5.867 8.8-11.147 14.08-15.84 5.28-4.84 10.926-8.727 16.94-11.66 6.013-2.933 12.026-4.4 18.04-4.4 6.306 0 11.66 1.613 16.06 4.84s6.6 7.48 6.6 12.76c0 3.96-1.394 6.82-4.18 8.58-2.787 1.76-6.087 2.273-9.9 1.54.293-1.32.513-2.64.66-3.96.293-1.32.44-2.713.44-4.18 0-2.933-.587-5.573-1.76-7.92-1.174-2.347-3.667-3.52-7.48-3.52-4.107 0-8.287 1.393-12.54 4.18-4.254 2.787-8.36 6.453-12.32 11-3.814 4.4-7.26 9.313-10.34 14.74-3.08 5.28-5.5 10.487-7.26 15.62s-2.64 9.753-2.64 13.86c0 4.693 1.686 7.04 5.06 7.04 3.373 0 7.113-1.613 11.22-4.84 4.106-3.373 8.213-7.553 12.32-12.54 4.253-4.987 8.286-10.047 12.1-15.18 3.813-5.28 7.113-9.753 9.9-13.42.44-.733 1.026-1.1 1.76-1.1.586.147 1.686.513 3.3 1.1 1.76.44 3.373 1.173 4.84 2.2 1.466 1.027 2.2 2.347 2.2 3.96 0 1.467-.66 3.373-1.98 5.72-1.174 2.2-2.64 4.693-4.4 7.48-1.614 2.64-3.08 5.353-4.4 8.14-1.174 2.64-1.76 5.207-1.76 7.7 0 1.907.513 3.74 1.54 5.5 1.026 1.613 2.713 2.42 5.06 2.42 3.52 0 8.433-2.567 14.74-7.7 6.453-5.28 12.98-14.153 19.58-26.62l4.18 4.18c-3.52 7.92-7.774 14.96-12.76 21.12-4.84 6.013-9.974 10.707-15.4 14.08-5.427 3.52-10.927 5.28-16.5 5.28-6.014 0-10.487-1.907-13.42-5.72-2.934-3.813-4.547-7.92-4.84-12.32 0-.293 0-.513 0-.66s0-.293 0-.44c-5.867 7.04-11.294 12.613-16.28 16.72-4.84 4.107-10.047 6.16-15.62 6.16z"/><path d="m974.24 504.12c-5.427 0-9.827-1.467-13.2-4.4-3.374-2.787-5.06-6.6-5.06-11.44 0-4.107 1.026-8.507 3.08-13.2 2.053-4.693 4.106-9.313 6.16-13.86 2.2-4.547 3.3-8.58 3.3-12.1 0-3.373-1.1-6.16-3.3-8.36-2.2-2.347-4.767-4.253-7.7-5.72-3.227 8.067-6.894 15.913-11 23.54-3.96 7.48-7.187 13.347-9.68 17.6l-3.3-6.38c2.053-3.813 4.766-9.24 8.14-16.28 3.373-7.04 6.6-14.887 9.68-23.54-1.467-1.467-2.2-3.447-2.2-5.94 0-3.813 1.173-7.407 3.52-10.78 2.346-3.373 4.62-5.06 6.82-5.06 1.76 0 3.006 1.027 3.74 3.08.88 1.907 1.32 3.227 1.32 3.96s-.367 2.053-1.1 3.96c-.587 1.907-1.027 3.3-1.32 4.18.146 1.613 1.393 3.227 3.74 4.84 2.493 1.467 5.28 3.227 8.36 5.28s5.793 4.62 8.14 7.7c2.346 3.08 3.52 6.967 3.52 11.66 0 4.253-.954 8.58-2.86 12.98-1.907 4.4-3.814 8.507-5.72 12.32-1.907 3.813-2.86 7.113-2.86 9.9 0 2.053.513 3.447 1.54 4.18 1.173.587 2.493.88 3.96.88 3.52 0 7.186-1.027 11-3.08 3.813-2.2 7.553-4.987 11.22-8.36 3.67-3.373 6.89-6.893 9.68-10.56 2.79-3.813 4.91-7.26 6.38-10.34l5.28 3.96c-2.79 6.307-6.82 12.54-12.1 18.7-5.28 6.013-11.15 11-17.6 14.96-6.454 3.813-12.98 5.72-19.58 5.72z"/><path d="m1024.02 560c-3.67 0-7.11-1.173-10.34-3.52-3.08-2.2-4.62-5.793-4.62-10.78 0-4.693 1.39-8.947 4.18-12.76 2.79-3.667 6.38-7.113 10.78-10.34 4.4-3.08 9.09-5.94 14.08-8.58 5.13-2.493 10.05-4.84 14.74-7.04 1.61-4.253 3.37-9.607 5.28-16.06 2.05-6.6 3.81-12.687 5.28-18.26-4.55 6.307-9.39 11.88-14.52 16.72s-10.85 7.26-17.16 7.26c-2.64 0-5.43-.513-8.36-1.54-2.93-1.173-5.43-3.08-7.48-5.72-1.91-2.787-2.86-6.453-2.86-11 0-3.813.66-8.433 1.98-13.86 1.47-5.427 3.23-10.707 5.28-15.84 2.2-5.28 4.47-9.607 6.82-12.98 2.35-3.52 4.4-5.28 6.16-5.28.88 0 2.13.367 3.74 1.1 1.76.587 3.45 1.467 5.06 2.64 1.61 1.027 2.64 2.2 3.08 3.52-1.32 1.76-2.79 4.327-4.4 7.7-1.61 3.227-3.15 6.893-4.62 11-1.47 3.96-2.71 7.847-3.74 11.66-.88 3.813-1.32 7.113-1.32 9.9 0 2.2.44 4.107 1.32 5.72s2.57 2.42 5.06 2.42c3.23 0 6.53-1.32 9.9-3.96 3.52-2.64 6.89-6.013 10.12-10.12 3.37-4.107 6.38-8.287 9.02-12.54.29-1.027.59-2.64.88-4.84s.81-4.473 1.54-6.82c.73-2.493 1.98-4.767 3.74-6.82 1.91-2.053 4.55-3.08 7.92-3.08 1.17 0 2.27.073 3.3.22s2.27.367 3.74.66c0 2.2-.81 6.527-2.42 12.98-1.47 6.307-3.45 13.64-5.94 22s-5.28 16.72-8.36 25.08c6.16-2.493 12.54-6.6 19.14-12.32 6.75-5.867 12.17-14.153 16.28-24.86l3.74 3.08c-2.2 7.333-5.57 13.713-10.12 19.14-4.4 5.427-9.39 10.047-14.96 13.86s-11.22 6.967-16.94 9.46c-3.96 9.533-8.29 18.333-12.98 26.4-4.55 8.067-9.39 14.447-14.52 19.14-5.13 4.84-10.63 7.26-16.5 7.26zm-2.2-8.14c2.79 0 6.67-2.933 11.66-8.8s10.05-14.667 15.18-26.4c-4.69 2.347-9.46 5.06-14.3 8.14-4.69 3.227-8.65 6.6-11.88 10.12s-4.84 7.113-4.84 10.78c0 1.467.29 2.86.88 4.18.73 1.32 1.83 1.98 3.3 1.98z"/></g><circle cx="1120.96" cy="439.734" fill="#ec4899" r="12.2222"/></svg>

<svg width="1600" height="900" viewBox="0 0 1600 900" fill="none" xmlns="http://www.w3.org/2000/svg">
<rect width="1600" height="900" fill="#0F172A"/>
<path d="M484.26 517.54C479.86 517.54 475.68 516.367 471.72 514.02C467.907 511.673 466 508.667 466 505C466 503.093 466.293 501.04 466.88 498.84C467.613 496.64 468.273 494.587 468.86 492.68C473.407 478.747 477.66 465.767 481.62 453.74C485.58 441.567 489.54 429.907 493.5 418.76C497.607 407.467 501.86 396.173 506.26 384.88C510.807 373.587 515.867 361.78 521.44 349.46C515.867 350.633 511.1 352.173 507.14 354.08C503.18 355.84 499.953 357.453 497.46 358.92C494.967 360.24 493.133 360.9 491.96 360.9C491.227 360.9 490.127 360.387 488.66 359.36C487.34 358.333 486.167 357.16 485.14 355.84C484.113 354.52 483.6 353.347 483.6 352.32C487.707 350.56 492.473 348.727 497.9 346.82C503.473 344.913 509.487 343.3 515.94 341.98C522.393 340.66 528.847 340 535.3 340C542.193 340 549.233 340.953 556.42 342.86C563.607 344.62 570.207 347.333 576.22 351C582.38 354.52 587.293 358.993 590.96 364.42C594.773 369.7 596.68 375.933 596.68 383.12C596.68 390.893 594.92 397.567 591.4 403.14C587.88 408.713 583.187 413.407 577.32 417.22C571.6 421.033 565.367 424.113 558.62 426.46C551.873 428.807 545.127 430.567 538.38 431.74C531.78 432.913 525.84 433.72 520.56 434.16C515.28 434.6 511.32 434.82 508.68 434.82H507.36C503.253 449.34 499.22 463.86 495.26 478.38C491.3 492.753 487.633 505.807 484.26 517.54ZM509.34 428C517.553 427.413 525.767 426.02 533.98 423.82C542.193 421.62 549.6 418.613 556.2 414.8C562.947 410.84 568.3 405.927 572.26 400.06C576.367 394.193 578.42 387.373 578.42 379.6C578.42 372.267 576.44 366.327 572.48 361.78C568.667 357.233 563.68 353.787 557.52 351.44C551.507 349.093 545.127 347.847 538.38 347.7C533.1 357.967 528.04 370.14 523.2 384.22C518.36 398.153 513.74 412.747 509.34 428Z" fill="white"/>
<path d="M594.069 505C587.616 505 582.776 503.093 579.549 499.28C576.323 495.467 574.709 490.847 574.709 485.42C574.709 482.047 575.296 477.793 576.469 472.66C577.643 467.527 579.256 462.173 581.309 456.6C583.509 450.88 586.003 445.527 588.789 440.54C591.576 435.553 594.583 431.52 597.809 428.44C601.036 425.213 604.263 423.6 607.489 423.6C609.249 423.6 610.789 424.187 612.109 425.36C613.429 426.387 614.089 427.927 614.089 429.98C614.089 431.887 612.916 434.747 610.569 438.56C608.369 442.373 605.729 446.773 602.649 451.76C599.716 456.747 597.076 461.953 594.729 467.38C592.529 472.66 591.429 477.72 591.429 482.56C591.429 487.253 592.236 490.407 593.849 492.02C595.609 493.487 598.103 494.22 601.329 494.22C606.316 494.22 611.743 491.727 617.609 486.74C623.476 481.753 629.563 473.027 635.869 460.56L639.169 464.08C634.036 476.987 627.509 487.033 619.589 494.22C611.669 501.407 603.163 505 594.069 505ZM620.029 405.78C617.243 405.78 614.676 405.12 612.329 403.8C610.129 402.333 609.029 400.133 609.029 397.2C609.029 393.68 610.936 390.673 614.749 388.18C618.563 385.687 622.523 384.44 626.629 384.44C629.269 384.44 631.469 385.027 633.229 386.2C635.136 387.373 636.089 389.5 636.089 392.58C636.089 395.66 634.403 398.667 631.029 401.6C627.656 404.387 623.989 405.78 620.029 405.78Z" fill="white"/>
<path d="M704.32 502.8C698.6 502.8 694.2 501.333 691.12 498.4C688.187 495.613 686.72 492.02 686.72 487.62C686.72 484.687 687.233 481.607 688.26 478.38C689.287 475.007 690.313 471.633 691.34 468.26C692.367 464.887 692.88 461.66 692.88 458.58C692.88 455.353 692.073 453.153 690.46 451.98C688.993 450.66 687.233 450 685.18 450C680.78 450 676.233 451.833 671.54 455.5C666.993 459.02 662.52 463.493 658.12 468.92C653.867 474.347 649.833 479.993 646.02 485.86C642.207 491.727 638.907 497.007 636.12 501.7C633.333 501.7 630.693 501.187 628.2 500.16C625.707 499.28 623.58 497.667 621.82 495.32C621.967 494.587 622.847 492.387 624.46 488.72C625.927 484.907 627.613 480.433 629.52 475.3C631.427 470.02 633.113 464.52 634.58 458.8C636.047 453.08 636.78 447.873 636.78 443.18C637.807 442.007 639.347 440.833 641.4 439.66C643.6 438.487 645.873 437.9 648.22 437.9C653.353 437.9 655.92 440.1 655.92 444.5C655.92 446.26 655.553 448.9 654.82 452.42C654.233 455.793 653.353 459.68 652.18 464.08C655.993 458.947 660.173 454.107 664.72 449.56C669.267 445.013 673.96 441.347 678.8 438.56C683.787 435.627 688.773 434.16 693.76 434.16C700.067 434.16 704.687 436.287 707.62 440.54C710.7 444.793 712.24 449.487 712.24 454.62C712.24 459.02 711.507 463.127 710.04 466.94C708.573 470.753 707.107 474.347 705.64 477.72C704.32 481.093 703.66 484.393 703.66 487.62C703.66 489.967 704.173 491.653 705.2 492.68C706.373 493.56 707.62 494 708.94 494C712.46 494 716.127 492.313 719.94 488.94C723.753 485.567 727.347 481.313 730.72 476.18C734.24 470.9 737.32 465.62 739.96 460.34L743.7 463.42C740.62 470.607 737.1 477.207 733.14 483.22C729.327 489.087 725 493.853 720.16 497.52C715.467 501.04 710.187 502.8 704.32 502.8Z" fill="white"/>
<path d="M803.905 506.76C799.358 506.76 795.398 505.293 792.025 502.36C788.651 499.427 785.938 495.76 783.885 491.36C781.831 486.96 780.291 482.487 779.265 477.94C778.238 473.247 777.725 469.213 777.725 465.84C779.778 465.4 782.345 464.74 785.425 463.86C788.505 462.98 791.658 461.807 794.885 460.34C798.111 458.727 800.751 456.82 802.805 454.62C805.005 452.273 806.105 449.487 806.105 446.26C806.105 443.62 805.225 441.493 803.465 439.88C801.851 438.267 799.505 437.46 796.425 437.46C792.318 437.46 788.431 438.853 784.765 441.64C781.098 444.28 777.651 447.8 774.425 452.2C771.345 456.6 768.485 461.367 765.845 466.5C763.351 471.633 761.078 476.62 759.025 481.46C757.118 486.3 755.505 490.48 754.185 494C752.571 498.4 751.031 501.333 749.565 502.8C748.098 504.413 745.971 505.22 743.185 505.22C742.158 505.22 740.911 504.927 739.445 504.34C738.125 503.753 736.951 502.287 735.925 499.94C735.045 497.593 734.605 493.853 734.605 488.72C734.605 479.773 735.851 469.947 738.345 459.24C740.838 448.533 744.138 437.68 748.245 426.68C752.498 415.533 757.118 404.9 762.105 394.78C767.091 384.66 772.151 375.567 777.285 367.5C782.418 359.433 787.185 353.053 791.585 348.36C796.131 343.667 799.871 341.32 802.805 341.32C805.298 341.32 807.351 342.86 808.965 345.94C810.725 348.873 811.605 352.687 811.605 357.38C811.605 362.367 810.505 367.94 808.305 374.1C806.105 380.113 802.951 386.273 798.845 392.58C794.885 398.74 790.118 404.607 784.545 410.18C778.971 415.753 772.811 420.52 766.065 424.48C761.958 434.013 758.805 443.473 756.605 452.86C754.405 462.1 753.011 470.313 752.425 477.5C755.065 471.487 758.071 465.327 761.445 459.02C764.818 452.713 768.558 446.847 772.665 441.42C776.771 435.847 781.171 431.373 785.865 428C790.705 424.627 795.838 422.94 801.265 422.94C807.131 422.94 812.265 424.993 816.665 429.1C821.065 433.207 823.265 438.34 823.265 444.5C823.265 448.9 822.091 452.713 819.745 455.94C817.398 459.167 814.465 461.88 810.945 464.08C807.571 466.133 804.125 467.673 800.605 468.7C797.085 469.727 794.078 470.313 791.585 470.46C792.025 472.367 792.611 474.787 793.345 477.72C794.225 480.653 795.325 483.513 796.645 486.3C797.965 489.087 799.651 491.433 801.705 493.34C803.758 495.247 806.178 496.2 808.965 496.2C812.631 496.2 816.371 494.513 820.185 491.14C824.145 487.767 827.958 483.293 831.625 477.72C835.438 472.147 838.811 465.987 841.745 459.24L844.825 462.98C842.331 470.313 838.885 477.353 834.485 484.1C830.231 490.847 825.465 496.273 820.185 500.38C814.905 504.633 809.478 506.76 803.905 506.76ZM772.445 409.52C776.405 406 780.585 401.673 784.985 396.54C789.385 391.26 793.125 385.687 796.205 379.82C799.431 373.807 801.118 368.087 801.265 362.66C801.265 362.513 801.265 362.44 801.265 362.44C801.265 362.293 801.265 362.147 801.265 362C799.798 362.587 797.451 365.153 794.225 369.7C791.145 374.1 787.698 379.747 783.885 386.64C780.071 393.533 776.258 401.16 772.445 409.52Z" fill="white"/>
<path d="M848.106 508.74C843.266 508.74 839.086 507.127 835.566 503.9C831.899 500.673 830.066 495.833 830.066 489.38C830.066 484.247 831.239 478.673 833.586 472.66C835.932 466.647 839.159 460.707 843.266 454.84C847.372 448.973 852.066 443.693 857.346 439C862.626 434.16 868.272 430.273 874.286 427.34C880.299 424.407 886.312 422.94 892.326 422.94C898.632 422.94 903.986 424.553 908.386 427.78C912.786 431.007 914.986 435.26 914.986 440.54C914.986 444.5 913.592 447.36 910.806 449.12C908.019 450.88 904.719 451.393 900.906 450.66C901.199 449.34 901.419 448.02 901.566 446.7C901.859 445.38 902.006 443.987 902.006 442.52C902.006 439.587 901.419 436.947 900.246 434.6C899.072 432.253 896.579 431.08 892.766 431.08C888.659 431.08 884.479 432.473 880.226 435.26C875.972 438.047 871.866 441.713 867.906 446.26C864.092 450.66 860.646 455.573 857.566 461C854.486 466.28 852.066 471.487 850.306 476.62C848.546 481.753 847.666 486.373 847.666 490.48C847.666 495.173 849.352 497.52 852.726 497.52C856.099 497.52 859.839 495.907 863.946 492.68C868.052 489.307 872.159 485.127 876.266 480.14C880.519 475.153 884.552 470.093 888.366 464.96C892.179 459.68 895.479 455.207 898.266 451.54C898.706 450.807 899.292 450.44 900.026 450.44C900.612 450.587 901.712 450.953 903.326 451.54C905.086 451.98 906.699 452.713 908.166 453.74C909.632 454.767 910.366 456.087 910.366 457.7C910.366 459.167 909.706 461.073 908.386 463.42C907.212 465.62 905.746 468.113 903.986 470.9C902.372 473.54 900.906 476.253 899.586 479.04C898.412 481.68 897.826 484.247 897.826 486.74C897.826 488.647 898.339 490.48 899.366 492.24C900.392 493.853 902.079 494.66 904.426 494.66C907.946 494.66 912.859 492.093 919.166 486.96C925.619 481.68 932.146 472.807 938.746 460.34L942.926 464.52C939.406 472.44 935.152 479.48 930.166 485.64C925.326 491.653 920.192 496.347 914.766 499.72C909.339 503.24 903.839 505 898.266 505C892.252 505 887.779 503.093 884.846 499.28C881.912 495.467 880.299 491.36 880.006 486.96C880.006 486.667 880.006 486.447 880.006 486.3C880.006 486.153 880.006 486.007 880.006 485.86C874.139 492.9 868.712 498.473 863.726 502.58C858.886 506.687 853.679 508.74 848.106 508.74Z" fill="white"/>
<path d="M974.24 504.12C968.813 504.12 964.413 502.653 961.04 499.72C957.666 496.933 955.98 493.12 955.98 488.28C955.98 484.173 957.006 479.773 959.06 475.08C961.113 470.387 963.166 465.767 965.22 461.22C967.42 456.673 968.52 452.64 968.52 449.12C968.52 445.747 967.42 442.96 965.22 440.76C963.02 438.413 960.453 436.507 957.52 435.04C954.293 443.107 950.626 450.953 946.52 458.58C942.56 466.06 939.333 471.927 936.84 476.18L933.54 469.8C935.593 465.987 938.306 460.56 941.68 453.52C945.053 446.48 948.28 438.633 951.36 429.98C949.893 428.513 949.16 426.533 949.16 424.04C949.16 420.227 950.333 416.633 952.68 413.26C955.026 409.887 957.3 408.2 959.5 408.2C961.26 408.2 962.506 409.227 963.24 411.28C964.12 413.187 964.56 414.507 964.56 415.24C964.56 415.973 964.193 417.293 963.46 419.2C962.873 421.107 962.433 422.5 962.14 423.38C962.286 424.993 963.533 426.607 965.88 428.22C968.373 429.687 971.16 431.447 974.24 433.5C977.32 435.553 980.033 438.12 982.38 441.2C984.726 444.28 985.9 448.167 985.9 452.86C985.9 457.113 984.946 461.44 983.04 465.84C981.133 470.24 979.226 474.347 977.32 478.16C975.413 481.973 974.46 485.273 974.46 488.06C974.46 490.113 974.973 491.507 976 492.24C977.173 492.827 978.493 493.12 979.96 493.12C983.48 493.12 987.146 492.093 990.96 490.04C994.773 487.84 998.513 485.053 1002.18 481.68C1005.85 478.307 1009.07 474.787 1011.86 471.12C1014.65 467.307 1016.77 463.86 1018.24 460.78L1023.52 464.74C1020.73 471.047 1016.7 477.28 1011.42 483.44C1006.14 489.453 1000.27 494.44 993.82 498.4C987.366 502.213 980.84 504.12 974.24 504.12Z" fill="white"/>
<path d="M1024.02 560C1020.35 560 1016.91 558.827 1013.68 556.48C1010.6 554.28 1009.06 550.687 1009.06 545.7C1009.06 541.007 1010.45 536.753 1013.24 532.94C1016.03 529.273 1019.62 525.827 1024.02 522.6C1028.42 519.52 1033.11 516.66 1038.1 514.02C1043.23 511.527 1048.15 509.18 1052.84 506.98C1054.45 502.727 1056.21 497.373 1058.12 490.92C1060.17 484.32 1061.93 478.233 1063.4 472.66C1058.85 478.967 1054.01 484.54 1048.88 489.38C1043.75 494.22 1038.03 496.64 1031.72 496.64C1029.08 496.64 1026.29 496.127 1023.36 495.1C1020.43 493.927 1017.93 492.02 1015.88 489.38C1013.97 486.593 1013.02 482.927 1013.02 478.38C1013.02 474.567 1013.68 469.947 1015 464.52C1016.47 459.093 1018.23 453.813 1020.28 448.68C1022.48 443.4 1024.75 439.073 1027.1 435.7C1029.45 432.18 1031.5 430.42 1033.26 430.42C1034.14 430.42 1035.39 430.787 1037 431.52C1038.76 432.107 1040.45 432.987 1042.06 434.16C1043.67 435.187 1044.7 436.36 1045.14 437.68C1043.82 439.44 1042.35 442.007 1040.74 445.38C1039.13 448.607 1037.59 452.273 1036.12 456.38C1034.65 460.34 1033.41 464.227 1032.38 468.04C1031.5 471.853 1031.06 475.153 1031.06 477.94C1031.06 480.14 1031.5 482.047 1032.38 483.66C1033.26 485.273 1034.95 486.08 1037.44 486.08C1040.67 486.08 1043.97 484.76 1047.34 482.12C1050.86 479.48 1054.23 476.107 1057.46 472C1060.83 467.893 1063.84 463.713 1066.48 459.46C1066.77 458.433 1067.07 456.82 1067.36 454.62C1067.65 452.42 1068.17 450.147 1068.9 447.8C1069.63 445.307 1070.88 443.033 1072.64 440.98C1074.55 438.927 1077.19 437.9 1080.56 437.9C1081.73 437.9 1082.83 437.973 1083.86 438.12C1084.89 438.267 1086.13 438.487 1087.6 438.78C1087.6 440.98 1086.79 445.307 1085.18 451.76C1083.71 458.067 1081.73 465.4 1079.24 473.76C1076.75 482.12 1073.96 490.48 1070.88 498.84C1077.04 496.347 1083.42 492.24 1090.02 486.52C1096.77 480.653 1102.19 472.367 1106.3 461.66L1110.04 464.74C1107.84 472.073 1104.47 478.453 1099.92 483.88C1095.52 489.307 1090.53 493.927 1084.96 497.74C1079.39 501.553 1073.74 504.707 1068.02 507.2C1064.06 516.733 1059.73 525.533 1055.04 533.6C1050.49 541.667 1045.65 548.047 1040.52 552.74C1035.39 557.58 1029.89 560 1024.02 560ZM1021.82 551.86C1024.61 551.86 1028.49 548.927 1033.48 543.06C1038.47 537.193 1043.53 528.393 1048.66 516.66C1043.97 519.007 1039.2 521.72 1034.36 524.8C1029.67 528.027 1025.71 531.4 1022.48 534.92C1019.25 538.44 1017.64 542.033 1017.64 545.7C1017.64 547.167 1017.93 548.56 1018.52 549.88C1019.25 551.2 1020.35 551.86 1021.82 551.86Z" fill="white"/>
<circle cx="1120.96" cy="439.734" r="12.2222" fill="#EC4899"/>
</svg>
